X:1
T:Jack-in-the-Box [2]
M:4/4
L:1/8
S:learned from David Kidd
R:reel
D:Joe McKenna
Z:Lorna LaVerne
K:D
|: dcBA F3E | D2FE DF(3FFF | ABcd F3E | DEFA BE(3EEE :|
dcBc d3B | cded cA(3AAA | ABcd e^def | gefe d3B |
ABcd e3d | cded cA(3AAA | ABcd e^def | gefe d3 ||

